.storybook/public/story-assets/logo-svg_12-12_desktop_dark.svg

<svg width="1120" height="90" viewBox="0 0 1120 90" fill="none" xmlns="http://www.w3.org/2000/svg">
<path fill-rule="evenodd" clip-rule="evenodd" d="M129.46 25.5H121.46V44.5H129.46V25.5ZM131.46 44.5H160.96H161.96H200.958C200.437 33.9189 191.693 25.5 180.983 25.5H131.46V44.5ZM200.958 46.5H161.96H160.96H131.46V65.5H180.983C191.693 65.5 200.437 57.0811 200.958 46.5ZM129.46 65.5V46.5H121.46V65.5H129.46ZM119.46 46.5H118.96H81C81.521 57.0811 90.2651 65.5 100.975 65.5H119.46V46.5ZM119.46 44.5V25.5H100.975C90.2651 25.5 81.521 33.9189 81 44.5H118.96H119.46Z" fill="white"/>
<path fill-rule="evenodd" clip-rule="evenodd" d="M283.652 25.5H272.958C268.54 25.5 264.958 29.0817 264.958 33.5V44.37H283.652V25.5ZM264.958 46.37V57.5C264.958 61.9183 268.54 65.5 272.958 65.5H283.652V65.4515V46.37H264.958ZM285.652 65.5H296.958C301.376 65.5 304.958 61.9183 304.958 57.5V46.37H285.652V65.4515V65.5ZM304.958 44.37V33.5C304.958 29.0817 301.376 25.5 296.958 25.5H285.652V44.37H304.958Z" fill="white"/>
<path fill-rule="evenodd" clip-rule="evenodd" d="M407.563 25.5H390.39L398.977 34.0862L407.563 25.5ZM387.562 25.5H376.958C372.54 25.5 368.958 29.0817 368.958 33.5V57.5C368.958 59.3536 369.588 61.0599 370.646 62.4163L397.562 35.5004L387.562 25.5ZM372.063 63.8281C373.416 64.8762 375.114 65.5 376.958 65.5H427.562L398.977 36.9146L372.063 63.8281ZM430.39 65.5H461.032C465.451 65.5 469.032 61.9183 469.032 57.5V33.5C469.032 29.0817 465.451 25.5 461.032 25.5H410.391L400.391 35.5004L430.39 65.5Z" fill="white"/>
<path fill-rule="evenodd" clip-rule="evenodd" d="M582.994 28.2229C582.82 27.651 582.58 27.1391 582.274 26.6873C581.974 26.2283 581.612 25.8365 581.188 25.5117C580.77 25.1869 580.29 24.9433 579.747 24.7809C579.204 24.6115 578.612 24.5267 577.972 24.5267C576.823 24.5267 575.8 24.8198 574.902 25.4058C574.004 25.9918 573.297 26.8532 572.782 27.9899C572.274 29.1196 572.02 30.4964 572.02 32.1204C572.02 33.7584 572.274 35.1458 572.782 36.2825C573.29 37.4193 573.997 38.2842 574.902 38.8773C575.807 39.4633 576.858 39.7563 578.055 39.7563C579.141 39.7563 580.081 39.5445 580.874 39.1209C581.675 38.6972 582.291 38.0971 582.723 37.3204C583.135 36.5711 583.351 35.6991 583.369 34.7045H578.442V31.6332H587.119V34.2385C587.119 36.0954 586.729 37.7017 585.949 39.0573C585.169 40.413 584.097 41.4579 582.733 42.1922C581.369 42.9195 579.802 43.2831 578.034 43.2831C576.064 43.2831 574.334 42.8347 572.845 41.938C571.362 41.0343 570.203 39.7528 569.368 38.0936C568.539 36.4273 568.125 34.4503 568.125 32.1627C568.125 30.4117 568.369 28.8478 568.856 27.471C569.35 26.0942 570.039 24.9257 570.924 23.9654C571.808 22.9981 572.845 22.2638 574.035 21.7625C575.226 21.2542 576.52 21 577.919 21C579.103 21 580.206 21.1765 581.229 21.5295C582.253 21.8755 583.161 22.3697 583.955 23.0123C584.755 23.6548 585.413 24.4173 585.928 25.2999C586.443 26.1824 586.781 27.1568 586.941 28.2229H582.994ZM533.032 21.2965V42.9865H536.906V35.6577H540.999C542.649 35.6577 544.038 35.3506 545.165 34.7363C546.293 34.115 547.146 33.2642 547.724 32.1839C548.301 31.1036 548.59 29.868 548.59 28.4771C548.59 27.1003 548.301 25.8718 547.724 24.7915C547.153 23.7042 546.307 22.8499 545.186 22.2285C544.073 21.6072 542.694 21.2965 541.051 21.2965H533.032ZM536.906 32.4275H540.477C541.438 32.4275 542.224 32.258 542.837 31.9191C543.45 31.5802 543.902 31.1142 544.194 30.5211C544.494 29.9281 544.643 29.2467 544.643 28.4771C544.643 27.7075 544.494 27.0297 544.194 26.4437C543.902 25.8577 543.446 25.4022 542.827 25.0775C542.214 24.7456 541.424 24.5797 540.456 24.5797H536.906V32.4275ZM547.595 42.9865H551.73L553.498 37.6382H561.538L563.31 42.9865H567.445L559.906 21.2965H555.123L547.595 42.9865ZM560.492 34.4821L557.598 25.7447H557.431L554.542 34.4821H560.492ZM590.276 21.2965V42.9865H604.268V39.6928H594.15V33.7725H603.464V30.4788H594.15V24.5903H604.185V21.2965H590.276ZM596.428 47.7169C597.451 47.724 598.447 47.9076 599.414 48.2677C600.389 48.6207 601.266 49.1996 602.045 50.0045C602.825 50.8024 603.445 51.8721 603.904 53.2136C604.363 54.5551 604.593 56.2143 604.593 58.1912C604.6 60.0552 604.405 61.7215 604.008 63.1901C603.619 64.6516 603.058 65.8872 602.327 66.8969C601.596 67.9066 600.716 68.6761 599.686 69.2057C598.655 69.7352 597.496 70 596.209 70C594.858 70 593.661 69.7317 592.617 69.1951C591.579 68.6585 590.741 67.9242 590.1 66.9922C589.46 66.0602 589.066 64.9941 588.92 63.7938H592.731C592.926 64.6552 593.323 65.34 593.922 65.8484C594.527 66.3497 595.29 66.6003 596.209 66.6003C597.691 66.6003 598.833 65.9473 599.633 64.6411C600.434 63.3349 600.834 61.5203 600.834 59.1974H600.688C600.347 59.8187 599.905 60.3553 599.362 60.8072C598.819 61.252 598.203 61.5944 597.514 61.8345C596.832 62.0745 596.108 62.1946 595.342 62.1946C594.089 62.1946 592.961 61.891 591.959 61.2838C590.963 60.6766 590.173 59.8434 589.589 58.7843C589.011 57.7252 588.718 56.5144 588.711 55.1517C588.711 53.7396 589.032 52.4722 589.672 51.3496C590.319 50.2199 591.221 49.3303 592.376 48.6807C593.532 48.0241 594.882 47.7028 596.428 47.7169ZM596.438 50.8942C595.686 50.8942 595.008 51.0813 594.402 51.4555C593.803 51.8226 593.33 52.3239 592.982 52.9594C592.641 53.5878 592.47 54.2903 592.47 55.067C592.477 55.8366 592.648 56.5355 592.982 57.1639C593.323 57.7923 593.786 58.2901 594.371 58.6572C594.963 59.0244 595.638 59.208 596.396 59.208C596.96 59.208 597.486 59.0985 597.973 58.8796C598.46 58.6608 598.885 58.3572 599.247 57.9688C599.616 57.5734 599.901 57.1251 600.103 56.6238C600.312 56.1225 600.413 55.593 600.406 55.0352C600.406 54.2938 600.232 53.609 599.884 52.9806C599.543 52.3522 599.073 51.8473 598.474 51.4661C597.883 51.0848 597.204 50.8942 596.438 50.8942ZM586.253 55.3317H582.348C582.237 54.6822 582.031 54.1067 581.732 53.6054C581.433 53.0971 581.06 52.6664 580.615 52.3133C580.169 51.9603 579.661 51.6955 579.09 51.519C578.526 51.3355 577.917 51.2437 577.263 51.2437C576.1 51.2437 575.07 51.5402 574.172 52.1333C573.274 52.7193 572.571 53.5807 572.063 54.7175C571.555 55.8471 571.301 57.2275 571.301 58.8585C571.301 60.5177 571.555 61.9157 572.063 63.0524C572.578 64.1821 573.281 65.0364 574.172 65.6154C575.07 66.1873 576.097 66.4733 577.252 66.4733C577.893 66.4733 578.492 66.3885 579.048 66.2191C579.612 66.0426 580.117 65.7849 580.562 65.446C581.015 65.107 581.394 64.6905 581.701 64.1962C582.014 63.702 582.23 63.1372 582.348 62.5017L586.253 62.5229C586.107 63.5537 585.79 64.521 585.303 65.4248C584.823 66.3285 584.193 67.1264 583.413 67.8183C582.633 68.5032 581.721 69.0398 580.677 69.4281C579.633 69.8094 578.474 70 577.2 70C575.321 70 573.643 69.5587 572.167 68.6761C570.692 67.7936 569.529 66.5192 568.68 64.8529C567.831 63.1866 567.406 61.1884 567.406 58.8585C567.406 56.5214 567.834 54.5233 568.69 52.8641C569.546 51.1978 570.712 49.9233 572.188 49.0408C573.664 48.1582 575.335 47.7169 577.2 47.7169C578.391 47.7169 579.497 47.8864 580.521 48.2253C581.544 48.5642 582.456 49.062 583.256 49.7186C584.057 50.3682 584.715 51.166 585.23 52.1121C585.752 53.0512 586.093 54.1244 586.253 55.3317ZM615.71 48.0135H607.691V69.7035H611.565V61.7603H615.507L619.709 69.7035H624.032L619.407 61.1165C619.546 61.0595 619.682 60.9988 619.814 60.9343C620.941 60.3765 621.794 59.5892 622.372 58.5725C622.957 57.5487 623.249 56.3414 623.249 54.9505C623.249 53.5666 622.96 52.3557 622.382 51.3178C621.812 50.2728 620.966 49.4609 619.845 48.8819C618.731 48.303 617.353 48.0135 615.71 48.0135ZM611.565 58.4984H615.136C616.097 58.4984 616.883 58.3642 617.496 58.0959C618.108 57.8206 618.561 57.4216 618.853 56.8992C619.152 56.3696 619.302 55.7201 619.302 54.9505C619.302 54.1809 619.152 53.5242 618.853 52.9806C618.554 52.4298 618.098 52.0133 617.485 51.7308C616.873 51.4414 616.083 51.2966 615.115 51.2966H611.565V58.4984ZM607.495 21.24H623.422V42.9864H607.495V21.24ZM564.615 47.9571H533.067V69.7035H564.615V47.9571Z" fill="white"/>
<path fill-rule="evenodd" clip-rule="evenodd" d="M736.726 25.5H708.014C697.347 25.5 688.631 33.85 688.045 44.37H736.726V25.5ZM688.032 46.37C688.488 57.0121 697.259 65.5 708.014 65.5H736.726V65.4515V46.37H688.032ZM738.726 65.5H768.088C778.842 65.5 787.614 57.0121 788.07 46.37H787.967H738.726V65.4515V65.5ZM788.057 44.37C787.471 33.85 778.755 25.5 768.088 25.5H738.726V44.37H787.967H788.057Z" fill="white"/>
<path fill-rule="evenodd" clip-rule="evenodd" d="M858.57 25.6404C854.869 26.3425 852.07 29.5944 852.07 33.5V44.5H858.57V25.6404ZM852.07 46.5V57.5C852.07 61.4056 854.869 64.6575 858.57 65.3596V46.5H852.07ZM860.57 65.5H884.07C888.489 65.5 892.07 61.9183 892.07 57.5V46.5H860.57V65.5ZM892.07 44.5V33.5C892.07 29.0817 888.489 25.5 884.07 25.5H860.57V44.5H892.07Z" fill="white"/>
<path fill-rule="evenodd" clip-rule="evenodd" d="M918.57 25.5H902.07C897.652 25.5 894.07 29.0817 894.07 33.5V34.5H918.57V25.5ZM894.07 36.5V57.5C894.07 61.9183 897.652 65.5 902.07 65.5H918.57V36.5H894.07ZM920.57 65.5H926.07C930.489 65.5 934.07 61.9183 934.07 57.5V36.5H920.57V65.5ZM934.07 34.5V33.5C934.07 29.0817 930.489 25.5 926.07 25.5H920.57V34.5H934.07Z" fill="white"/>
<path fill-rule="evenodd" clip-rule="evenodd" d="M1003.24 32.0825C1000.03 35.6308 998.07 40.3369 998.07 45.5C998.07 50.5969 999.977 55.2485 1003.12 58.7805L1016.53 45.3701L1003.24 32.0825ZM1004.65 30.6683L1017.94 43.9559L1031.35 30.5455C1027.82 27.4066 1023.17 25.5 1018.07 25.5C1012.91 25.5 1008.2 27.4564 1004.65 30.6683ZM1032.78 31.9468L1019.35 45.3701L1032.85 58.8627L1032.9 58.9174C1036.11 55.3691 1038.07 50.663 1038.07 45.5C1038.07 40.2708 1036.06 35.5104 1032.78 31.9468ZM1031.49 60.3316L1031.43 60.277L1017.94 46.7843L1004.52 60.2077C1008.08 63.4932 1012.84 65.5 1018.07 65.5C1023.23 65.5 1027.94 63.5436 1031.49 60.3316Z" fill="white"/>
</svg>

<svg xmlns="http://www.w3.org/2000/svg" width="1120" height="90" fill="none"><path fill="#fff" fill-rule="evenodd" d="M129.46 25.5h-8v19h8zm2 19h69.49799999999999c-.521-10.581-9.265-19-19.975-19H131.46zm69.498 2H131.46v19h49.523c10.71 0 19.454-8.419 19.975-19m-71.498 19v-19h-8v19zm-10-19H81c.521 10.581 9.265 19 19.975 19h18.485zm0-2v-19h-18.485c-10.71 0-19.454 8.419-19.975 19h38.46M283.652 25.5h-10.694a8 8 0 0 0-8 8v10.87h18.694zm-18.694 20.87V57.5a8 8 0 0 0 8 8h10.694V46.37zm20.694 19.13h11.306a8 8 0 0 0 8-8V46.37h-19.306V65.5m19.306-21.13V33.5a8 8 0 0 0-8-8h-11.306v18.87zM407.563 25.5H390.39l8.587 8.586zm-20.001 0h-10.604a8 8 0 0 0-8 8v24c0 1.854.63 3.56 1.688 4.916L397.562 35.5zm-15.499 38.328a7.97 7.97 0 0 0 4.895 1.672h50.604l-28.585-28.585zM430.39 65.5h30.642a8 8 0 0 0 8-8v-24a8 8 0 0 0-8-8h-50.641l-10 10zM582.994 28.223a5.7 5.7 0 0 0-.72-1.536q-.45-.688-1.086-1.175a4.4 4.4 0 0 0-1.441-.731 6 6 0 0 0-1.775-.254q-1.723 0-3.07.879t-2.12 2.584q-.762 1.694-.762 4.13 0 2.457.762 4.163.762 1.704 2.12 2.594 1.357.88 3.153.88 1.63 0 2.819-.636a4.45 4.45 0 0 0 1.849-1.8q.619-1.125.646-2.616h-4.927v-3.072h8.677v2.606q0 2.785-1.17 4.818a8.05 8.05 0 0 1-3.216 3.135q-2.047 1.09-4.699 1.091-2.955 0-5.189-1.345-2.225-1.356-3.477-3.844-1.243-2.5-1.243-5.931 0-2.626.731-4.692.74-2.065 2.068-3.506a8.8 8.8 0 0 1 3.111-2.203q1.786-.762 3.884-.762 1.776 0 3.31.53a8.7 8.7 0 0 1 2.726 1.482 8.137 8.137 0 0 1 2.986 5.21zm-49.962-6.926v21.69h3.874v-7.33h4.093q2.475 0 4.166-.92 1.692-.933 2.559-2.553.866-1.62.866-3.707 0-2.065-.866-3.686-.856-1.63-2.538-2.562-1.67-.932-4.135-.932zm3.874 11.13h3.571q1.441 0 2.36-.508a3.2 3.2 0 0 0 1.357-1.398q.45-.89.449-2.044 0-1.154-.449-2.033-.438-.88-1.367-1.366-.92-.498-2.371-.498h-3.55zm10.689 10.56h4.135l1.768-5.349h8.04l1.772 5.349h4.135l-7.539-21.69h-4.783zm12.897-8.505-2.894-8.737h-.167l-2.889 8.737zm29.784-13.185v21.69h13.992v-3.294H594.15v-5.92h9.314v-3.294h-9.314V24.59h10.035v-3.293zm6.152 26.42a8.7 8.7 0 0 1 2.986.55q1.462.531 2.631 1.737 1.17 1.197 1.859 3.21t.689 4.977q.01 2.795-.585 5-.584 2.19-1.681 3.706-1.096 1.515-2.641 2.309-1.547.794-3.477.794-2.026 0-3.592-.805a6.8 6.8 0 0 1-2.517-2.203q-.96-1.398-1.18-3.198h3.811q.293 1.292 1.191 2.054.908.752 2.287.752 2.224 0 3.424-1.959 1.201-1.959 1.201-5.444h-.146a5.6 5.6 0 0 1-1.326 1.61 6 6 0 0 1-1.848 1.027q-1.023.36-2.172.36-1.88 0-3.383-.91a6.6 6.6 0 0 1-2.37-2.5q-.867-1.589-.878-3.632 0-2.119.961-3.802a7 7 0 0 1 2.704-2.67q1.733-.984 4.052-.963m.01 3.177q-1.127 0-2.036.562a3.96 3.96 0 0 0-1.42 1.503q-.512.943-.512 2.108.01 1.154.512 2.097a3.95 3.95 0 0 0 1.389 1.493q.888.55 2.025.551.846 0 1.577-.328a3.9 3.9 0 0 0 1.274-.911q.553-.594.856-1.345.313-.753.303-1.589a4.17 4.17 0 0 0-.522-2.054 4.06 4.06 0 0 0-1.41-1.515q-.887-.572-2.036-.572m-10.185 4.438h-3.905a5 5 0 0 0-.616-1.727 4.6 4.6 0 0 0-1.117-1.292 4.6 4.6 0 0 0-1.525-.794 5.9 5.9 0 0 0-1.827-.275q-1.744 0-3.091.89-1.347.878-2.109 2.584-.762 1.695-.762 4.14 0 2.49.762 4.194.772 1.695 2.109 2.563 1.347.858 3.08.858.962 0 1.796-.254a4.9 4.9 0 0 0 1.514-.773 4.5 4.5 0 0 0 1.139-1.25 4.8 4.8 0 0 0 .647-1.694l3.905.02a8.6 8.6 0 0 1-.95 2.903 8.5 8.5 0 0 1-1.89 2.393 8.7 8.7 0 0 1-2.736 1.61Q579.111 70 577.2 70q-2.819 0-5.033-1.324-2.213-1.324-3.487-3.823-1.274-2.5-1.274-5.994 0-3.507 1.284-5.995 1.284-2.499 3.498-3.823t5.012-1.324q1.786 0 3.321.508a8.5 8.5 0 0 1 2.735 1.494 7.9 7.9 0 0 1 1.974 2.393q.783 1.409 1.023 3.22m29.457-7.318h-8.019v21.69h3.874V61.76h3.942l4.202 7.944h4.323l-4.625-8.587a7 7 0 0 0 .407-.183q1.69-.836 2.558-2.361.877-1.536.877-3.623 0-2.075-.867-3.632-.855-1.568-2.537-2.436-1.67-.868-4.135-.868m-4.145 10.484h3.571q1.441 0 2.36-.402.918-.412 1.357-1.197.449-.795.449-1.949 0-1.155-.449-1.97-.449-.825-1.368-1.25-.918-.433-2.37-.433h-3.55zm-4.07-37.258h15.927v21.746h-15.927zm-42.88 26.717h-31.548v21.747h31.548zM736.726 25.5h-28.712c-10.667 0-19.383 8.35-19.969 18.87h48.681zm-48.694 20.87c.456 10.642 9.227 19.13 19.982 19.13h28.712V46.37zm50.694 19.13h29.362c10.754 0 19.526-8.488 19.982-19.13h-49.344V65.5m49.331-21.13c-.586-10.52-9.302-18.87-19.969-18.87h-29.362v18.87h49.331M858.57 25.64a8 8 0 0 0-6.5 7.86v11h6.5zm-6.5 20.86v11a8 8 0 0 0 6.5 7.86V46.5zm8.5 19h23.5a8 8 0 0 0 8-8v-11h-31.5zm31.5-21v-11a8 8 0 0 0-8-8h-23.5v19zM918.57 25.5h-16.5a8 8 0 0 0-8 8v1h24.5zm-24.5 11v21a8 8 0 0 0 8 8h16.5v-29zm26.5 29h5.5a8 8 0 0 0 8-8v-21h-13.5zm13.5-31v-1a8 8 0 0 0-8-8h-5.5v9zM1003.24 32.083a19.94 19.94 0 0 0-5.17 13.417c0 5.097 1.907 9.749 5.05 13.28l13.41-13.41zm1.41-1.415 13.29 13.288 13.41-13.41a19.9 19.9 0 0 0-13.28-5.046c-5.16 0-9.87 1.956-13.42 5.168m28.13 1.279-13.43 13.423 13.5 13.493.05.054a19.94 19.94 0 0 0 5.17-13.417c0-5.23-2.01-9.99-5.29-13.553m-1.29 28.385-.06-.055-13.49-13.493-13.42 13.424a19.9 19.9 0 0 0 13.55 5.292c5.16 0 9.87-1.956 13.42-5.168" clip-rule="evenodd"/></svg>
